svg/color/heth.svg

<svg width="83" height="32" viewBox="0 0 83 32" fill="none" xmlns="http://www.w3.org/2000/svg">
<path d="M41.9269 24.2303C41.6164 24.2851 41.3017 24.3117 40.9864 24.3099C40.3154 24.3099 39.8431 24.1862 39.5696 23.9389C39.2961 23.6915 39.1593 23.276 39.1593 22.6924V8.03033C39.3004 7.99438 39.5254 7.94988 39.8344 7.89682C40.1363 7.84478 40.4422 7.81837 40.7486 7.81787C41.3837 7.81787 41.8514 7.93276 42.1519 8.16255C42.4524 8.39234 42.6019 8.81661 42.6007 9.43536V14.6588H49.2199V8.03033C49.3609 7.99438 49.5861 7.94988 49.8956 7.89682C50.1973 7.84476 50.5029 7.81835 50.8091 7.81787C51.4446 7.81787 51.9124 7.93704 52.2124 8.17539C52.5125 8.41373 52.6621 8.84164 52.6612 9.45911V24.0936C52.5022 24.1289 52.2765 24.1738 51.9855 24.2264C51.6753 24.2812 51.3607 24.3079 51.0457 24.306C50.3742 24.306 49.902 24.1824 49.6289 23.935C49.3558 23.6877 49.2188 23.2722 49.2179 22.6885V17.4124H42.5994V24.0974C42.4397 24.134 42.2154 24.1776 41.9269 24.2303Z" fill="#0B091E"/>
<path d="M67.6524 17.8399C67.6524 18.8669 67.4979 19.7908 67.1889 20.6115C66.9025 21.3982 66.4561 22.1169 65.8779 22.7219C65.3038 23.3115 64.608 23.7684 63.8392 24.0609C63.0443 24.3694 62.1526 24.5241 61.164 24.5249C60.1754 24.5258 59.2839 24.3711 58.4894 24.0609C57.7228 23.7699 57.0274 23.3177 56.4501 22.7348C55.8703 22.1371 55.4235 21.4233 55.1391 20.6404C54.8301 19.8184 54.6756 18.8857 54.6756 17.8425C54.6756 16.8181 54.8301 15.8947 55.1391 15.0722C55.425 14.2866 55.8767 13.572 56.4636 12.9772C57.0472 12.3965 57.7461 11.9449 58.515 11.6517C59.31 11.3424 60.1928 11.1877 61.1634 11.1877C62.134 11.1877 63.0167 11.3424 63.8117 11.6517C64.583 11.9465 65.2825 12.403 65.8632 12.9907C66.4478 13.5921 66.8989 14.3104 67.187 15.0985C67.4964 15.9193 67.6516 16.8331 67.6524 17.8399ZM61.164 13.8366C60.2109 13.8366 59.4606 14.1856 58.9132 14.8835C58.3657 15.5814 58.0919 16.5669 58.0919 17.8399C58.0919 19.1309 58.3612 20.1209 58.8997 20.8098C59.4382 21.4988 60.193 21.8434 61.164 21.8439C62.1346 21.8439 62.8894 21.4947 63.4283 20.7964C63.9673 20.098 64.2365 19.1125 64.2361 17.8399C64.2361 16.5678 63.9623 15.5823 63.4148 14.8835C62.8674 14.1847 62.1171 13.8358 61.164 13.8366Z" fill="#0B091E"/>
<path d="M75.7556 24.4954C75.2794 24.499 74.8043 24.4502 74.3388 24.3497C73.9372 24.2618 73.5432 24.1422 73.1605 23.9921V28.8703C73.0015 28.9054 72.7897 28.9497 72.5252 29.0032C72.2293 29.0587 71.9287 29.0854 71.6277 29.0828C71.0097 29.0828 70.5506 28.9679 70.2506 28.7381C69.9506 28.5083 69.801 28.1018 69.8019 27.5185V14.0754C69.8019 13.6513 69.8856 13.3066 70.0532 13.0413C70.2207 12.776 70.49 12.5285 70.8609 12.2987C71.3738 11.9992 72.0095 11.7384 72.7682 11.5163C73.5268 11.2942 74.383 11.1838 75.337 11.1851C76.2473 11.1766 77.1536 11.3065 78.025 11.5702C78.8135 11.8087 79.5408 12.2159 80.1566 12.7634C80.755 13.3026 81.2228 13.9872 81.56 14.8174C81.8972 15.6475 82.0649 16.6375 82.0632 17.7873C82.0632 18.8998 81.9045 19.872 81.5869 20.7039C81.2694 21.5357 80.8323 22.2339 80.2759 22.7983C79.7168 23.366 79.0377 23.8009 78.2885 24.0711C77.4759 24.3615 76.6183 24.5051 75.7556 24.4954ZM75.253 21.8175C76.3121 21.8175 77.1418 21.4904 77.7423 20.8361C78.3428 20.1818 78.642 19.1656 78.6398 17.7873C78.6398 16.3559 78.3308 15.3396 77.7128 14.7384C77.0948 14.1372 76.3005 13.8366 75.3299 13.8366C74.9031 13.8292 74.478 13.8918 74.0715 14.0221C73.7482 14.1297 73.4339 14.2628 73.1316 14.4201V21.2341C73.425 21.4162 73.741 21.5588 74.0715 21.6583C74.4552 21.77 74.8534 21.8236 75.253 21.8175V21.8175Z" fill="#0B091E"/>
<path d="M30.6227 10.2698L24.108 0.781144C23.0849 -0.706049 20.7712 0.0834406 20.8468 1.89028C20.9161 3.5373 21.5309 5.28059 23.0022 7.41992C23.0028 7.42111 23.0031 7.42248 23.003 7.42385C23.0028 7.42521 23.0022 7.42648 23.0013 7.42749C23.0004 7.42849 22.9991 7.42917 22.9978 7.42943C22.9965 7.42968 22.9951 7.4295 22.9938 7.42891C22.3919 6.9796 13.3173 0.156613 2.53041 3.78955H2.51823C1.32774 4.23629 0.719988 5.21127 1.0213 6.35443C1.30017 7.41286 2.38424 8.0483 3.46191 7.86922C5.75314 7.48732 8.02707 7.30567 10.2632 7.50208C12.4993 7.69849 14.6867 8.27231 16.7234 9.27426C18.7601 10.2762 20.6051 11.6941 22.3008 13.318C24.208 15.1428 26.5743 19.0344 26.5743 19.0344C26.713 19.281 26.9342 19.4707 27.1989 19.5699C27.4636 19.6691 27.7549 19.6716 28.0212 19.5768C28.6623 19.347 28.961 18.6069 28.72 17.9721C28.2173 16.6452 27.6019 15.3639 26.8807 14.1421C26.8797 14.141 26.8791 14.1395 26.8791 14.1379C26.8791 14.1363 26.8796 14.1348 26.8806 14.1336C26.8817 14.1325 26.8831 14.1317 26.8846 14.1315C26.8862 14.1313 26.8878 14.1316 26.8891 14.1325C27.6866 14.4329 28.4245 14.8071 29.2976 14.6024C30.0099 14.4348 30.6349 13.9496 30.9253 13.2705C31.1356 12.7862 31.2182 12.256 31.1652 11.7306C31.1122 11.2052 30.9254 10.7022 30.6227 10.2698V10.2698Z" fill="url(#paint0_linear_1002_211)"/>
<path d="M0.558036 20.7525L7.07274 30.2412C8.09591 31.7284 10.4096 30.9389 10.3339 29.1321C10.2647 27.485 9.6499 25.7417 8.17861 23.6024C8.17793 23.6012 8.17765 23.5999 8.1778 23.5985C8.17795 23.5971 8.17854 23.5959 8.17947 23.5948C8.1804 23.5938 8.18163 23.5932 8.18298 23.5929C8.18432 23.5927 8.18571 23.5928 8.18695 23.5934C8.78892 24.0427 17.8635 30.8657 28.6504 27.2328H28.6626C29.853 26.7861 30.4608 25.8111 30.1595 24.6679C29.8806 23.6095 28.7965 22.974 27.7189 23.1531C25.4276 23.535 23.1537 23.7167 20.9176 23.5203C18.6815 23.3238 16.4941 22.75 14.4574 21.7481C12.4207 20.7461 10.5756 19.3283 8.87996 17.7043C6.97273 15.8795 4.60649 11.9879 4.60649 11.9879C4.46781 11.7413 4.24659 11.5517 3.98186 11.4524C3.71713 11.3532 3.42591 11.3508 3.15956 11.4455C2.51847 11.6753 2.21973 12.4154 2.46078 13.0502C2.96349 14.3771 3.57883 15.6585 4.30005 16.8802C4.3011 16.8814 4.30168 16.8829 4.3017 16.8844C4.30171 16.886 4.30116 16.8875 4.30013 16.8887C4.29911 16.8899 4.29769 16.8906 4.29614 16.8909C4.29459 16.8911 4.29301 16.8907 4.29172 16.8898C3.49421 16.5894 2.75632 16.2152 1.88316 16.42C1.17091 16.5875 0.545856 17.0728 0.255444 17.7518C0.0451966 18.2361 -0.0373875 18.7663 0.015593 19.2917C0.0685735 19.8171 0.255345 20.3201 0.558036 20.7525V20.7525Z" fill="url(#paint1_linear_1002_211)"/>
<defs>
<linearGradient id="paint0_linear_1002_211" x1="32.7813" y1="28.6322" x2="-5.47099" y2="-18.4216" gradientUnits="userSpaceOnUse">
<stop offset="0.15" stop-color="#B32EFF"/>
<stop offset="0.42" stop-color="#CE60D3"/>
<stop offset="0.65" stop-color="#E185B3"/>
<stop offset="0.84" stop-color="#EE9C9F"/>
<stop offset="0.96" stop-color="#F2A498"/>
</linearGradient>
<linearGradient id="paint1_linear_1002_211" x1="-1.6005" y1="2.39016" x2="36.6518" y2="49.444" gradientUnits="userSpaceOnUse">
<stop offset="0.15" stop-color="#B32EFF"/>
<stop offset="0.42" stop-color="#CE60D3"/>
<stop offset="0.65" stop-color="#E185B3"/>
<stop offset="0.84" stop-color="#EE9C9F"/>
<stop offset="0.96" stop-color="#F2A498"/>
</linearGradient>
</defs>
</svg>

<svg xmlns="http://www.w3.org/2000/svg" width="83" height="32" fill="none" viewBox="0 0 83 32"><path fill="#0B091E" d="M41.927 24.23q-.466.083-.94.08-1.008 0-1.417-.371-.41-.37-.41-1.247V8.03q.21-.054.674-.133.454-.078.915-.08.952 0 1.403.346.45.345.449 1.272v5.224h6.619V8.03q.21-.054.676-.133.453-.078.913-.08.954 0 1.403.358t.45 1.284v14.635q-.24.053-.676.132-.466.083-.94.08-1.008 0-1.417-.371t-.411-1.246v-5.277h-6.619v6.685q-.24.054-.672.133m25.725-6.39q0 1.54-.463 2.771a6.05 6.05 0 0 1-1.311 2.11 5.65 5.65 0 0 1-2.039 1.34q-1.192.462-2.675.464-1.483 0-2.675-.464a5.7 5.7 0 0 1-2.039-1.326 5.9 5.9 0 0 1-1.31-2.095q-.464-1.233-.464-2.797 0-1.537.463-2.77a5.8 5.8 0 0 1 1.325-2.096 5.9 5.9 0 0 1 2.051-1.325q1.193-.465 2.648-.464 1.456 0 2.649.464a5.8 5.8 0 0 1 2.051 1.339 6 6 0 0 1 1.324 2.108q.465 1.23.465 2.74m-6.488-4.003q-1.43 0-2.25 1.047-.822 1.046-.822 2.956 0 1.935.808 2.97.807 1.033 2.264 1.034 1.455 0 2.264-1.048.81-1.047.808-2.956 0-1.908-.821-2.956-.822-1.05-2.251-1.047m14.592 10.659a6.5 6.5 0 0 1-1.417-.145 8 8 0 0 1-1.178-.358v4.878q-.24.053-.636.133a4.7 4.7 0 0 1-.897.08q-.927 0-1.377-.345t-.45-1.22V14.076q0-.636.252-1.034t.808-.742q.769-.45 1.907-.783t2.569-.33a9 9 0 0 1 2.688.384 5.7 5.7 0 0 1 2.132 1.193q.897.81 1.403 2.054.506 1.245.503 2.97 0 1.67-.476 2.917-.477 1.248-1.311 2.094a5.3 5.3 0 0 1-1.987 1.273c-.813.29-1.67.434-2.533.424m-.503-2.678q1.59 0 2.49-.98.9-.982.897-3.05 0-2.146-.927-3.049-.927-.9-2.383-.901a3.9 3.9 0 0 0-1.258.185q-.487.162-.94.398v6.814q.442.274.94.424c.383.112.781.166 1.181.16"/><path fill="url(#heth_svg-a)" d="M30.623 10.27 24.108.78c-1.023-1.487-3.337-.698-3.261 1.11.07 1.646.684 3.39 2.155 5.529l.001.004q0 .002-.002.003l-.007.002c-.602-.45-9.677-7.272-20.464-3.64h-.012C1.328 4.237.72 5.212 1.021 6.355c.28 1.059 1.363 1.694 2.44 1.515 2.292-.382 4.566-.563 6.802-.367s4.424.77 6.46 1.772c2.037 1.002 3.882 2.42 5.578 4.044 1.907 1.825 4.273 5.716 4.273 5.716a1.2 1.2 0 0 0 1.447.543c.641-.23.94-.97.699-1.605a25 25 0 0 0-1.84-3.834v-.004l.005-.002h.004c.798.3 1.535.675 2.409.47.712-.167 1.337-.652 1.627-1.332a3.09 3.09 0 0 0-.302-3"/><path fill="url(#heth_svg-b)" d="m.558 20.753 6.515 9.488c1.023 1.487 3.337.698 3.26-1.109-.068-1.647-.683-3.39-2.154-5.53l-.001-.003.001-.004.004-.002h.004c.602.45 9.676 7.273 20.463 3.64h.013c1.19-.447 1.798-1.422 1.497-2.565-.28-1.058-1.363-1.694-2.441-1.515-2.291.382-4.565.564-6.801.367s-4.424-.77-6.46-1.772c-2.037-1.002-3.882-2.42-5.578-4.044-1.907-1.825-4.274-5.716-4.274-5.716a1.2 1.2 0 0 0-1.446-.543c-.642.23-.94.97-.7 1.605a25 25 0 0 0 1.842 3.834.006.006 0 0 1-.006.007l-.004-.001c-.798-.3-1.536-.675-2.409-.47-.712.167-1.337.653-1.628 1.332a3.09 3.09 0 0 0 .303 3"/><defs><linearGradient id="heth_svg-a" x1="32.781" x2="-5.471" y1="28.632" y2="-18.422" gradientUnits="userSpaceOnUse"><stop offset=".15" stop-color="#B32EFF"/><stop offset=".42" stop-color="#CE60D3"/><stop offset=".65" stop-color="#E185B3"/><stop offset=".84" stop-color="#EE9C9F"/><stop offset=".96" stop-color="#F2A498"/></linearGradient><linearGradient id="heth_svg-b" x1="-1.601" x2="36.652" y1="2.39" y2="49.444" gradientUnits="userSpaceOnUse"><stop offset=".15" stop-color="#B32EFF"/><stop offset=".42" stop-color="#CE60D3"/><stop offset=".65" stop-color="#E185B3"/><stop offset=".84" stop-color="#EE9C9F"/><stop offset=".96" stop-color="#F2A498"/></linearGradient></defs></svg>
